X: 28568
T: Murphy's
R: hornpipe
M: 4/4
K: Dmajor
(3ABc|d2AF d2AF|dcdf ecA2|(3faf df gfed|(3cdc A^G A2 (3ABc|
d2AF d2AF|dcdf ecA2|(3faf df gfec|df (3edc d2 (3ABc|
d2AF d2AF|dcdf ecA2|(3faf df gfed|(3cdc A^G A2 (3ABc|
d2AF d2AF|dcdf ecA2|(3faf df gfec|df (3edc d2 fg||
afdg faga|bged cdeg|fa (3aaa bged|(3cdc A^G A2 fg|
afdg faga|bged cdeg|fa (3aaa bgec|df (3edc d2 fg|
afdg faga|bged cdeg|fa (3aaa bgec|(3cdc A^G A2 (3ABc|
d2AF d2AF|dcdf ecA2|(3faf df gfec|df (3edc d2AG||
(3FGF D2 (3faf ec|dcdf ecAG|(3FGF D2 (3faf ec|df (3edc d2 AG|
(3FGF D2 (3faf ec|dcdf ecA2|(3faf df gfec|df (3edc d2 AG|
(3FGF D2 (3faf ec|dcdf ecAG|(3FGF D2 (3faf ec|df (3edc d2 AG|
(3FGF D2 (3faf ec|dcdf ecA2|(3faf df gfec|df (3edc d2 ag||
fefd gf (3gfe|fefd ec A2|(3faf df gfed|(3cdc A^G A2 (3ABc|
d2AF d2AF|dcdf ecA2|(3faf df gfec|df (3edc d2ag|
fefd gf (3gfe|fefd ec A2|(3faf df gfed|(3cdc A^G A2 (3ABc|
dcdf eceg|fdfa gfge|fgaf gfec|dfec d2||

